X: 4
T: The Maid On The Green
R: jig
M: 6/8
L: 1/8
K: Gmaj
gfg e2 d | Bge dBA | BGG dGG | BAA AB/c/d |gfg e2 d | BeB dBA | BGG dBA | AGF G :||: gfg afd | gfg abc' | bag agf | gef g2 a |[1 bg/a/b afa | gfg e2 d | BeB dBA | AGF G :|[2 bc'b ac/b/a | gea gdB | GeB dBA | AGF G |]


Tune 1831	Setting 15260

